#src/img/common/low.svg

<svg width="24" height="24" fill="none" xmlns="http://www.w3.org/2000/svg"><path d="M12 5.99L19.53 19H4.47L12 5.99zM12 2L1 21h22L12 2zm1 14h-2v2h2v-2zm0-6h-2v4h2v-4z" fill="#FF9C41"/></svg>

<svg width="24" height="24" viewBox="0 0 24 24" fill="none" xmlns="http://www.w3.org/2000/svg">
  <path d="M12 5.99L19.53 19H4.47L12 5.99ZM12 2L1 21H23L12 2ZM13 16H11V18H13V16ZM13 10H11V14H13V10Z" fill="#FF9C41"/>
</svg>
